Flat-Remix-Dark/apps/scalable/asc-de.svg

<svg xmlns="http://www.w3.org/2000/svg" xmlns:xlink="http://www.w3.org/1999/xlink" width="384pt" height="384pt" version="1.1" viewBox="0 0 384 384">
 <defs>
  <filter id="alpha" width="100%" height="100%" x="0%" y="0%">
   <feColorMatrix in="SourceGraphic" values="0 0 0 0 1 0 0 0 0 1 0 0 0 0 1 0 0 0 1 0"/>
  </filter>
  <mask id="mask0">
   <g filter="url(#alpha)">
    <rect width="384" height="384" style="fill-opacity:.2;fill:rgb(0%,0%,0%)"/>
   </g>
  </mask>
  <clipPath id="clip1">
   <rect width="384" height="384"/>
  </clipPath>
  <g id="surface5" clip-path="url(#clip1)">
   <path d="m192.00781 198c-10.347656 0-20.695312 2.066406-28.351562 6.191406l-116.17578 62.546875c-15.316407 8.246094-15.300781 22.285157 0.011719 30.53125l116.16406 62.546875c15.3125 8.246094 41.390625 8.246094 56.703125 0l116.16016-62.546875c15.316407-8.246093 15.300781-22.285156-0.011719-30.53125l-116.14844-62.546875c-7.65625-4.125-18.003906-6.191406-28.351563-6.191406z" style="fill:rgb(0%,0%,0%)"/>
  </g>
  <mask id="mask1">
   <g filter="url(#alpha)">
    <rect width="384" height="384" style="fill-opacity:.2;fill:rgb(0%,0%,0%)"/>
   </g>
  </mask>
  <clipPath id="clip2">
   <rect width="384" height="384"/>
  </clipPath>
  <g id="surface8" clip-path="url(#clip2)">
   <path d="m192 192c-10.347656 0-20.679688 2.0625-28.335938 6.1875l-116.17969 62.554688c-9.015625 4.851562-12.558594 11.6875-10.921875 18.1875 1.09375-4.5 4.667969-8.820313 10.921875-12.1875l116.17969-62.554688c7.65625-4.125 17.988282-6.1875 28.335938-6.1875s20.703125 2.0625 28.359375 6.1875l116.15625 62.554688c6.253906 3.367187 9.828125 7.6875 10.921875 12.1875 1.632812-6.5-1.90625-13.332032-10.921875-18.1875l-116.15625-62.554688c-7.65625-4.125-18.011719-6.1875-28.359375-6.1875z" style="fill:rgb(100%,100%,100%)"/>
  </g>
  <mask id="mask2">
   <g filter="url(#alpha)">
    <rect width="384" height="384" style="fill-opacity:.2;fill:rgb(0%,0%,0%)"/>
   </g>
  </mask>
  <clipPath id="clip3">
   <rect width="384" height="384"/>
  </clipPath>
  <g id="surface11" clip-path="url(#clip3)">
   <path d="m192.00781 114c-10.347656 0-20.695312 2.066406-28.351562 6.191406l-116.17578 62.546875c-15.316407 8.246094-15.300781 22.285157 0.011719 30.53125l116.16406 62.546875c15.3125 8.246094 41.390625 8.246094 56.703125 0l116.16016-62.546875c15.316407-8.246093 15.300781-22.285156-0.011719-30.53125l-116.14844-62.546875c-7.65625-4.125-18.003906-6.191406-28.351563-6.191406z" style="fill:rgb(0%,0%,0%)"/>
  </g>
  <mask id="mask3">
   <g filter="url(#alpha)">
    <rect width="384" height="384" style="fill-opacity:.2;fill:rgb(0%,0%,0%)"/>
   </g>
  </mask>
  <clipPath id="clip4">
   <rect width="384" height="384"/>
  </clipPath>
  <g id="surface14" clip-path="url(#clip4)">
   <path d="m192 108c-10.347656 0-20.679688 2.0625-28.335938 6.1875l-116.17969 62.554688c-9.015625 4.855468-12.558594 11.6875-10.921875 18.1875 1.09375-4.5 4.667969-8.820313 10.921875-12.1875l116.17969-62.554688c7.65625-4.125 17.988282-6.1875 28.335938-6.1875s20.703125 2.0625 28.359375 6.1875l116.15625 62.554688c6.253906 3.367187 9.828125 7.6875 10.921875 12.1875 1.632812-6.5-1.90625-13.332032-10.921875-18.1875l-116.15625-62.554688c-7.65625-4.125-18.011719-6.1875-28.359375-6.1875z" style="fill:rgb(100%,100%,100%)"/>
  </g>
  <mask id="mask4">
   <g filter="url(#alpha)">
    <rect width="384" height="384" style="fill-opacity:.2;fill:rgb(0%,0%,0%)"/>
   </g>
  </mask>
  <clipPath id="clip5">
   <rect width="384" height="384"/>
  </clipPath>
  <g id="surface17" clip-path="url(#clip5)">
   <path d="m192.00781 30c-10.347656 0-20.695312 2.066406-28.351562 6.191406l-116.17578 62.546875c-15.316407 8.246094-15.300781 22.285157 0.011719 30.53125l116.16406 62.546875c15.3125 8.246094 41.390625 8.246094 56.703125 0l116.16016-62.546875c15.316407-8.246093 15.300781-22.285156-0.011719-30.53125l-116.14844-62.546875c-7.65625-4.125-18.003906-6.191406-28.351563-6.191406z" style="fill:rgb(0%,0%,0%)"/>
  </g>
  <mask id="mask5">
   <g filter="url(#alpha)">
    <rect width="384" height="384" style="fill-opacity:.2;fill:rgb(0%,0%,0%)"/>
   </g>
  </mask>
  <clipPath id="clip6">
   <rect width="384" height="384"/>
  </clipPath>
  <g id="surface20" clip-path="url(#clip6)">
   <path d="m192 24c-10.347656 0-20.679688 2.0625-28.335938 6.1875l-116.17969 62.554688c-9.015625 4.855468-12.558594 11.6875-10.921875 18.1875 1.09375-4.5 4.667969-8.820313 10.921875-12.1875l116.17969-62.554688c7.65625-4.125 17.988282-6.1875 28.335938-6.1875s20.703125 2.0625 28.359375 6.1875l116.15625 62.554688c6.253906 3.367187 9.828125 7.6875 10.921875 12.1875 1.632812-6.5-1.90625-13.332032-10.921875-18.1875l-116.15625-62.554688c-7.65625-4.125-18.011719-6.1875-28.359375-6.1875z" style="fill:rgb(100%,100%,100%)"/>
  </g>
 </defs>
 <use width="100%" height="100%" mask="url(#mask0)" transform="translate(0,3)" xlink:href="#surface5"/>
 <path d="m192.00781 192c-10.347656 0-20.695312 2.066406-28.351562 6.191406l-116.17578 62.546875c-15.316407 8.246094-15.300781 22.285157 0.011719 30.53125l116.16406 62.546875c15.3125 8.246094 41.390625 8.246094 56.703125 0l116.16016-62.546875c15.316407-8.246093 15.300781-22.285156-0.011719-30.53125l-116.14844-62.546875c-7.65625-4.125-18.003906-6.191406-28.351563-6.191406z" style="fill:#fd7d00"/>
 <use mask="url(#mask1)" xlink:href="#surface8"/>
 <use width="100%" height="100%" mask="url(#mask2)" transform="translate(0,3)" xlink:href="#surface11"/>
 <path d="m192.00781 108c-10.347656 0-20.695312 2.066406-28.351562 6.191406l-116.17578 62.546875c-15.316407 8.246094-15.300781 22.285157 0.011719 30.53125l116.16406 62.546875c15.3125 8.246094 41.390625 8.246094 56.703125 0l116.16016-62.546875c15.316407-8.246093 15.300781-22.285156-0.011719-30.53125l-116.14844-62.546875c-7.65625-4.125-18.003906-6.191406-28.351563-6.191406z" style="fill:#0ca15e"/>
 <use mask="url(#mask3)" xlink:href="#surface14"/>
 <use width="100%" height="100%" mask="url(#mask4)" transform="translate(0,3)" xlink:href="#surface17"/>
 <path d="m192.00781 24c-10.347656 0-20.695312 2.066406-28.351562 6.191406l-116.17578 62.546875c-15.316407 8.246094-15.300781 22.285157 0.011719 30.53125l116.16406 62.546875c15.3125 8.246094 41.390625 8.246094 56.703125 0l116.16016-62.546875c15.316407-8.246093 15.300781-22.285156-0.011719-30.53125l-116.14844-62.546875c-7.65625-4.125-18.003906-6.191406-28.351563-6.191406z" style="fill:#0068b8"/>
 <use mask="url(#mask5)" xlink:href="#surface20"/>
</svg>

<svg xmlns="http://www.w3.org/2000/svg" xmlns:xlink="http://www.w3.org/1999/xlink" width="384pt" height="384pt" version="1.1" viewBox="0 0 384 384">
 <defs>
  <filter id="alpha" width="100%" height="100%" x="0%" y="0%" filterUnits="objectBoundingBox">
   <feColorMatrix in="SourceGraphic" type="matrix" values="0 0 0 0 1 0 0 0 0 1 0 0 0 0 1 0 0 0 1 0"/>
  </filter>
  <mask id="mask0">
   <g filter="url(#alpha)">
    <rect width="384" height="384" x="0" y="0" style="fill:rgb(0%,0%,0%);fill-opacity:0.2"/>
   </g>
  </mask>
  <clipPath id="clip1">
   <rect width="384" height="384" x="0" y="0"/>
  </clipPath>
  <g id="surface5" clip-path="url(#clip1)">
   <path style="fill:rgb(0%,0%,0%)" d="M 192.007812 198 C 181.660156 198 171.3125 200.066406 163.65625 204.191406 L 47.480469 266.738281 C 32.164062 274.984375 32.179688 289.023438 47.492188 297.269531 L 163.65625 359.816406 C 178.96875 368.0625 205.046875 368.0625 220.359375 359.816406 L 336.519531 297.269531 C 351.835938 289.023438 351.820312 274.984375 336.507812 266.738281 L 220.359375 204.191406 C 212.703125 200.066406 202.355469 198 192.007812 198 Z M 192.007812 198"/>
  </g>
  <mask id="mask1">
   <g filter="url(#alpha)">
    <rect width="384" height="384" x="0" y="0" style="fill:rgb(0%,0%,0%);fill-opacity:0.2"/>
   </g>
  </mask>
  <clipPath id="clip2">
   <rect width="384" height="384" x="0" y="0"/>
  </clipPath>
  <g id="surface8" clip-path="url(#clip2)">
   <path style="fill:rgb(100%,100%,100%)" d="M 192 192 C 181.652344 192 171.320312 194.0625 163.664062 198.1875 L 47.484375 260.742188 C 38.46875 265.59375 34.925781 272.429688 36.5625 278.929688 C 37.65625 274.429688 41.230469 270.109375 47.484375 266.742188 L 163.664062 204.1875 C 171.320312 200.0625 181.652344 198 192 198 C 202.347656 198 212.703125 200.0625 220.359375 204.1875 L 336.515625 266.742188 C 342.769531 270.109375 346.34375 274.429688 347.4375 278.929688 C 349.070312 272.429688 345.53125 265.597656 336.515625 260.742188 L 220.359375 198.1875 C 212.703125 194.0625 202.347656 192 192 192 Z M 192 192"/>
  </g>
  <mask id="mask2">
   <g filter="url(#alpha)">
    <rect width="384" height="384" x="0" y="0" style="fill:rgb(0%,0%,0%);fill-opacity:0.2"/>
   </g>
  </mask>
  <clipPath id="clip3">
   <rect width="384" height="384" x="0" y="0"/>
  </clipPath>
  <g id="surface11" clip-path="url(#clip3)">
   <path style="fill:rgb(0%,0%,0%)" d="M 192.007812 114 C 181.660156 114 171.3125 116.066406 163.65625 120.191406 L 47.480469 182.738281 C 32.164062 190.984375 32.179688 205.023438 47.492188 213.269531 L 163.65625 275.816406 C 178.96875 284.0625 205.046875 284.0625 220.359375 275.816406 L 336.519531 213.269531 C 351.835938 205.023438 351.820312 190.984375 336.507812 182.738281 L 220.359375 120.191406 C 212.703125 116.066406 202.355469 114 192.007812 114 Z M 192.007812 114"/>
  </g>
  <mask id="mask3">
   <g filter="url(#alpha)">
    <rect width="384" height="384" x="0" y="0" style="fill:rgb(0%,0%,0%);fill-opacity:0.2"/>
   </g>
  </mask>
  <clipPath id="clip4">
   <rect width="384" height="384" x="0" y="0"/>
  </clipPath>
  <g id="surface14" clip-path="url(#clip4)">
   <path style="fill:rgb(100%,100%,100%)" d="M 192 108 C 181.652344 108 171.320312 110.0625 163.664062 114.1875 L 47.484375 176.742188 C 38.46875 181.597656 34.925781 188.429688 36.5625 194.929688 C 37.65625 190.429688 41.230469 186.109375 47.484375 182.742188 L 163.664062 120.1875 C 171.320312 116.0625 181.652344 114 192 114 C 202.347656 114 212.703125 116.0625 220.359375 120.1875 L 336.515625 182.742188 C 342.769531 186.109375 346.34375 190.429688 347.4375 194.929688 C 349.070312 188.429688 345.53125 181.597656 336.515625 176.742188 L 220.359375 114.1875 C 212.703125 110.0625 202.347656 108 192 108 Z M 192 108"/>
  </g>
  <mask id="mask4">
   <g filter="url(#alpha)">
    <rect width="384" height="384" x="0" y="0" style="fill:rgb(0%,0%,0%);fill-opacity:0.2"/>
   </g>
  </mask>
  <clipPath id="clip5">
   <rect width="384" height="384" x="0" y="0"/>
  </clipPath>
  <g id="surface17" clip-path="url(#clip5)">
   <path style="fill:rgb(0%,0%,0%)" d="M 192.007812 30 C 181.660156 30 171.3125 32.066406 163.65625 36.191406 L 47.480469 98.738281 C 32.164062 106.984375 32.179688 121.023438 47.492188 129.269531 L 163.65625 191.816406 C 178.96875 200.0625 205.046875 200.0625 220.359375 191.816406 L 336.519531 129.269531 C 351.835938 121.023438 351.820312 106.984375 336.507812 98.738281 L 220.359375 36.191406 C 212.703125 32.066406 202.355469 30 192.007812 30 Z M 192.007812 30"/>
  </g>
  <mask id="mask5">
   <g filter="url(#alpha)">
    <rect width="384" height="384" x="0" y="0" style="fill:rgb(0%,0%,0%);fill-opacity:0.2"/>
   </g>
  </mask>
  <clipPath id="clip6">
   <rect width="384" height="384" x="0" y="0"/>
  </clipPath>
  <g id="surface20" clip-path="url(#clip6)">
   <path style="fill:rgb(100%,100%,100%)" d="M 192 24 C 181.652344 24 171.320312 26.0625 163.664062 30.1875 L 47.484375 92.742188 C 38.46875 97.597656 34.925781 104.429688 36.5625 110.929688 C 37.65625 106.429688 41.230469 102.109375 47.484375 98.742188 L 163.664062 36.1875 C 171.320312 32.0625 181.652344 30 192 30 C 202.347656 30 212.703125 32.0625 220.359375 36.1875 L 336.515625 98.742188 C 342.769531 102.109375 346.34375 106.429688 347.4375 110.929688 C 349.070312 104.429688 345.53125 97.597656 336.515625 92.742188 L 220.359375 30.1875 C 212.703125 26.0625 202.347656 24 192 24 Z M 192 24"/>
  </g>
 </defs>
 <g>
  <use mask="url(#mask0)" xlink:href="#surface5"/>
  <path style="fill:rgb(91.764706%,43.137255%,25.490196%)" d="M 192.007812 192 C 181.660156 192 171.3125 194.066406 163.65625 198.191406 L 47.480469 260.738281 C 32.164062 268.984375 32.179688 283.023438 47.492188 291.269531 L 163.65625 353.816406 C 178.96875 362.0625 205.046875 362.0625 220.359375 353.816406 L 336.519531 291.269531 C 351.835938 283.023438 351.820312 268.984375 336.507812 260.738281 L 220.359375 198.191406 C 212.703125 194.066406 202.355469 192 192.007812 192 Z M 192.007812 192"/>
  <use mask="url(#mask1)" xlink:href="#surface8"/>
  <use mask="url(#mask2)" xlink:href="#surface11"/>
  <path style="fill:rgb(68.235294%,82.745098%,31.764706%)" d="M 192.007812 108 C 181.660156 108 171.3125 110.066406 163.65625 114.191406 L 47.480469 176.738281 C 32.164062 184.984375 32.179688 199.023438 47.492188 207.269531 L 163.65625 269.816406 C 178.96875 278.0625 205.046875 278.0625 220.359375 269.816406 L 336.519531 207.269531 C 351.835938 199.023438 351.820312 184.984375 336.507812 176.738281 L 220.359375 114.191406 C 212.703125 110.066406 202.355469 108 192.007812 108 Z M 192.007812 108"/>
  <use mask="url(#mask3)" xlink:href="#surface14"/>
  <use mask="url(#mask4)" xlink:href="#surface17"/>
  <path style="fill:rgb(23.137255%,61.568627%,85.490196%)" d="M 192.007812 24 C 181.660156 24 171.3125 26.066406 163.65625 30.191406 L 47.480469 92.738281 C 32.164062 100.984375 32.179688 115.023438 47.492188 123.269531 L 163.65625 185.816406 C 178.96875 194.0625 205.046875 194.0625 220.359375 185.816406 L 336.519531 123.269531 C 351.835938 115.023438 351.820312 100.984375 336.507812 92.738281 L 220.359375 30.191406 C 212.703125 26.066406 202.355469 24 192.007812 24 Z M 192.007812 24"/>
  <use mask="url(#mask5)" xlink:href="#surface20"/>
 </g>
</svg>
